svgs/light/calendars.svg

<svg xmlns="http://www.w3.org/2000/svg" viewBox="0 0 512 512"><!--! Font Awesome Pro 6.6.0 by @fontawesome - https://fontawesome.com License - https://fontawesome.com/license (Commercial License) Copyright 2024 Fonticons, Inc. --><path d="M208 0c8.8 0 16 7.2 16 16l0 48 160 0 0-48c0-8.8 7.2-16 16-16s16 7.2 16 16l0 48 32 0c35.3 0 64 28.7 64 64l0 64 0 160c0 35.3-28.7 64-64 64l-288 0c-35.3 0-64-28.7-64-64l0-160 0-64c0-35.3 28.7-64 64-64l32 0 0-48c0-8.8 7.2-16 16-16zM160 96c-17.7 0-32 14.3-32 32l0 32 352 0 0-32c0-17.7-14.3-32-32-32L160 96zm320 96l-352 0 0 160c0 17.7 14.3 32 32 32l288 0c17.7 0 32-14.3 32-32l0-160zM32 208l0 176c0 53 43 96 96 96l240 0c8.8 0 16 7.2 16 16s-7.2 16-16 16l-240 0C57.3 512 0 454.7 0 384L0 208c0-8.8 7.2-16 16-16s16 7.2 16 16z"/></svg>

<svg xmlns="http://www.w3.org/2000/svg" viewBox="0 0 512 512"><!--! Font Awesome Pro 6.5.2 by @fontawesome - https://fontawesome.com License - https://fontawesome.com/license (Commercial License) Copyright 2024 Fonticons, Inc. --><path d="M208 0c8.8 0 16 7.2 16 16V64H384V16c0-8.8 7.2-16 16-16s16 7.2 16 16V64h32c35.3 0 64 28.7 64 64v64V352c0 35.3-28.7 64-64 64H160c-35.3 0-64-28.7-64-64V192 128c0-35.3 28.7-64 64-64h32V16c0-8.8 7.2-16 16-16zM160 96c-17.7 0-32 14.3-32 32v32H480V128c0-17.7-14.3-32-32-32H160zm320 96H128V352c0 17.7 14.3 32 32 32H448c17.7 0 32-14.3 32-32V192zM32 208V384c0 53 43 96 96 96H368c8.8 0 16 7.2 16 16s-7.2 16-16 16H128C57.3 512 0 454.7 0 384V208c0-8.8 7.2-16 16-16s16 7.2 16 16z"/></svg>
